ix/presention-chart_bulk.svg

<svg viewBox="0 0 24 24" fill="none" xmlns="http://www.w3.org/2000/svg" height="1em" width="1em">
  <path opacity="0.4" d="M21 2V14.1C21 16 20 17 18.1 17H5.89999C3.99999 17 3 16 3 14.1V2H21Z" fill="#292D32"/>
  <path d="M22 2.75H2C1.59 2.75 1.25 2.41 1.25 2C1.25 1.59 1.59 1.25 2 1.25H22C22.41 1.25 22.75 1.59 22.75 2C22.75 2.41 22.41 2.75 22 2.75Z" fill="#292D32"/>
  <path d="M16.6703 22.34C16.5403 22.6 16.2703 22.75 16.0003 22.75C15.8903 22.75 15.7703 22.72 15.6703 22.67L12.0003 20.84L8.33025 22.67C8.23025 22.72 8.11027 22.75 8.00027 22.75C7.73027 22.75 7.46025 22.6 7.33025 22.34C7.14025 21.96 7.29028 21.51 7.67028 21.33L11.2503 19.54V17H12.7503V19.54L16.3303 21.33C16.7103 21.51 16.8603 21.96 16.6703 22.34Z" fill="#292D32"/>
  <path d="M7.5009 11.7499C7.2909 11.7499 7.07092 11.6599 6.92092 11.4799C6.65092 11.1599 6.70089 10.6899 7.02089 10.4199L10.1709 7.78993C10.4609 7.54993 10.8309 7.44994 11.1809 7.50994C11.5409 7.56994 11.8509 7.78991 12.0409 8.10991L13.0909 9.85991L16.0209 7.41994C16.3409 7.14994 16.8109 7.19992 17.0809 7.51992C17.3509 7.83992 17.3009 8.30991 16.9809 8.57991L13.8309 11.2099C13.5409 11.4499 13.1709 11.5499 12.8209 11.4899C12.4609 11.4299 12.1509 11.2099 11.9609 10.8899L10.9109 9.13994L7.98091 11.5799C7.84091 11.6899 7.6709 11.7499 7.5009 11.7499Z" fill="#292D32"/>
</svg>

<svg viewBox="0 0 24 24" fill="none" xmlns="http://www.w3.org/2000/svg" height="1em" width="1em">
  <path opacity=".4" d="M21 2v12.1c0 1.9-1 2.9-2.9 2.9H5.9C4 17 3 16 3 14.1V2h18Z" fill="#292D32"/>
  <path d="M22 2.75H2c-.41 0-.75-.34-.75-.75s.34-.75.75-.75h20c.41 0 .75.34.75.75s-.34.75-.75.75Zm-5.33 19.59c-.13.26-.4.41-.67.41-.11 0-.23-.03-.33-.08L12 20.84l-3.67 1.83c-.1.05-.22.08-.33.08-.27 0-.54-.15-.67-.41a.74.74 0 0 1 .34-1.01l3.58-1.79V17h1.5v2.54l3.58 1.79c.38.18.53.63.34 1.01ZM7.5 11.75a.75.75 0 0 1-.48-1.33l3.15-2.63c.29-.24.66-.34 1.01-.28.36.06.67.28.86.6l1.05 1.75 2.93-2.44a.75.75 0 0 1 1.06.1c.27.32.22.79-.1 1.06l-3.15 2.63c-.29.24-.66.34-1.01.28-.36-.06-.67-.28-.86-.6l-1.05-1.75-2.93 2.44c-.14.11-.31.17-.48.17Z" fill="#292D32"/>
</svg>
